src/svgs/viewport.svg

<?xml version="1.0" encoding="UTF-8" standalone="no"?>
<!-- Created with Inkscape (http://www.inkscape.org/) -->

<svg
   xmlns:dc="http://purl.org/dc/elements/1.1/"
   xmlns:cc="http://creativecommons.org/ns#"
   xmlns:rdf="http://www.w3.org/1999/02/22-rdf-syntax-ns#"
   xmlns:svg="http://www.w3.org/2000/svg"
   xmlns="http://www.w3.org/2000/svg"
   xmlns:xlink="http://www.w3.org/1999/xlink"
   xmlns:sodipodi="http://sodipodi.sourceforge.net/DTD/sodipodi-0.dtd"
   xmlns:inkscape="http://www.inkscape.org/namespaces/inkscape"
   width="20"
   height="20"
   id="svg5738"
   version="1.1"
   inkscape:version="0.91 r13725"
   sodipodi:docname="viewport.svg">
  <defs
     id="defs5740">
    <linearGradient
       inkscape:collect="always"
       xlink:href="#linearGradient4103"
       id="linearGradient4184"
       gradientUnits="userSpaceOnUse"
       x1="3003"
       y1="10"
       x2="3017"
       y2="10"
       gradientTransform="translate(1,2.6171874e-6)" />
    <linearGradient
       inkscape:collect="always"
       id="linearGradient4103">
      <stop
         style="stop-color:#000000;stop-opacity:1;"
         offset="0"
         id="stop4105" />
      <stop
         style="stop-color:#000000;stop-opacity:0;"
         offset="1"
         id="stop4107" />
    </linearGradient>
  </defs>
  <sodipodi:namedview
     id="base"
     pagecolor="#ffffff"
     bordercolor="#666666"
     borderopacity="1.0"
     inkscape:pageopacity="0.0"
     inkscape:pageshadow="2"
     inkscape:zoom="1"
     inkscape:cx="1.0665011"
     inkscape:cy="12.319914"
     inkscape:document-units="px"
     inkscape:current-layer="layer1"
     showgrid="false"
     inkscape:window-width="2078"
     inkscape:window-height="1054"
     inkscape:window-x="448"
     inkscape:window-y="204"
     inkscape:window-maximized="0"
     showguides="false"
     inkscape:snap-bbox="true"
     inkscape:bbox-paths="true"
     inkscape:bbox-nodes="true"
     inkscape:object-paths="true"
     inkscape:object-nodes="true"
     inkscape:snap-smooth-nodes="true"
     inkscape:snap-others="false"
     inkscape:snap-nodes="true">
    <inkscape:grid
       type="xygrid"
       id="grid5746"
       empspacing="2"
       visible="true"
       enabled="true"
       snapvisiblegridlinesonly="true"
       spacingx="0.5px"
       spacingy="0.5px"
       color="#0000ff"
       opacity="0.05882353" />
  </sodipodi:namedview>
  <metadata
     id="metadata5743">
    <rdf:RDF>
      <cc:Work
         rdf:about="">
        <dc:format>image/svg+xml</dc:format>
        <dc:type
           rdf:resource="http://purl.org/dc/dcmitype/StillImage" />
        <dc:title></dc:title>
      </cc:Work>
    </rdf:RDF>
  </metadata>
  <g
     inkscape:label="Layer 1"
     inkscape:groupmode="layer"
     id="layer1"
     transform="translate(0,-1032.3622)">
    <path
       style="color:#000000;clip-rule:nonzero;display:inline;overflow:visible;visibility:visible;opacity:1;isolation:auto;mix-blend-mode:normal;color-interpolation:sRGB;color-interpolation-filters:linearRGB;solid-color:#000000;solid-opacity:1;fill:#000000;fill-opacity:1;fill-rule:nonzero;stroke:none;stroke-width:12;stroke-linecap:round;stroke-linejoin:round;stroke-miterlimit:4;stroke-dasharray:none;stroke-dashoffset:0;stroke-opacity:1;marker:none;color-rendering:auto;image-rendering:auto;shape-rendering:auto;text-rendering:auto;enable-background:accumulate"
       d="M 4.5 4 C 4.2230024 4 4 4.2230024 4 4.5 L 4 7.5 C 4 7.777 4.223 8 4.5 8 C 4.777 8 5 7.777 5 7.5 L 5 5 L 7.5 5 C 7.7769976 5 8 4.7769976 8 4.5 C 8 4.2230024 7.7769976 4 7.5 4 L 4.5 4 z M 12.5 4 C 12.223002 4 12 4.2230024 12 4.5 C 12 4.7769976 12.223002 5 12.5 5 L 15 5 L 15 7.5 C 15 7.777 15.223 8 15.5 8 C 15.777 8 16 7.777 16 7.5 L 16 4.5 C 16 4.2230024 15.776998 4 15.5 4 L 12.5 4 z M 7.8867188 7 C 7.3949816 7 7 7.4459889 7 8 L 7 12 C 7 12.554011 7.3949816 13 7.8867188 13 L 12.113281 13 C 12.605018 13 13 12.554011 13 12 L 13 8 C 13 7.4459889 12.605018 7 12.113281 7 L 7.8867188 7 z M 4.5 12 C 4.223 12 4 12.223 4 12.5 L 4 15.5 C 4 15.776998 4.2230024 16 4.5 16 L 7.5 16 C 7.7769976 16 8 15.776998 8 15.5 C 8 15.223002 7.7769976 15 7.5 15 L 5 15 L 5 12.5 C 5 12.223 4.777 12 4.5 12 z M 15.5 12 C 15.223 12 15 12.223 15 12.5 L 15 15 L 12.5 15 C 12.223002 15 12 15.223002 12 15.5 C 12 15.776998 12.223002 16 12.5 16 L 15.5 16 C 15.776998 16 16 15.776998 16 15.5 L 16 12.5 C 16 12.223 15.777 12 15.5 12 z "
       transform="translate(0,1032.3622)"
       id="rect4158-5" />
  </g>
</svg>

<?xml version="1.0" encoding="UTF-8" standalone="yes"?>
<svg viewBox="0 0 20 20">
  <path d="M7.5,15H5v-2.5C5,12.2,4.8,12,4.5,12S4,12.2,4,12.5v3C4,15.8,4.2,16,4.5,16h3C7.8,16,8,15.8,8,15.5S7.8,15,7.5,15z"/>
  <path d="M4.5,8C4.8,8,5,7.8,5,7.5V5h2.5C7.8,5,8,4.8,8,4.5S7.8,4,7.5,4h-3C4.2,4,4,4.2,4,4.5v3C4,7.8,4.2,8,4.5,8z"/>
  <path d="M7,8v4c0,0.6,0.4,1,0.9,1h4.2c0.5,0,0.9-0.4,0.9-1V8c0-0.6-0.4-1-0.9-1H7.9C7.4,7,7,7.4,7,8z"/>
  <path d="M15.5,12c-0.3,0-0.5,0.2-0.5,0.5V15h-2.5c-0.3,0-0.5,0.2-0.5,0.5s0.2,0.5,0.5,0.5h3c0.3,0,0.5-0.2,0.5-0.5v-3
	C16,12.2,15.8,12,15.5,12z"/>
  <path d="M15.5,4h-3C12.2,4,12,4.2,12,4.5S12.2,5,12.5,5H15v2.5C15,7.8,15.2,8,15.5,8S16,7.8,16,7.5v-3C16,4.2,15.8,4,15.5,4z"/>
</svg>
